build/img/icons/icon-logo-blue-desktop.svg

<svg width="147" height="40" viewBox="0 0 147 40" xmlns="http://www.w3.org/2000/svg">
<g>
<path d="M72.1933 18.4249C72.1932 18.0921 72.3255 17.7725 72.562 17.5345C72.7985 17.2965 73.1204 17.1589 73.4588 17.1511H80.6703C85.7826 17.1511 89.1473 19.827 89.1473 24.211V24.2703C89.1473 29.069 85.0695 31.5573 80.2484 31.5573H74.7544V38.2913C74.7702 38.466 74.7488 38.642 74.6916 38.8082C74.6344 38.9743 74.5426 39.1269 74.4222 39.2563C74.3017 39.3856 74.1552 39.489 73.992 39.5596C73.8287 39.6303 73.6522 39.6668 73.4738 39.6668C73.2954 39.6668 73.119 39.6303 72.9557 39.5596C72.7925 39.489 72.6459 39.3856 72.5255 39.2563C72.405 39.1269 72.3133 38.9743 72.2561 38.8082C72.1989 38.642 72.1775 38.466 72.1933 38.2913V18.4249ZM80.3489 29.2863C84.0952 29.2863 86.556 27.3115 86.556 24.3493V24.29C86.556 21.1106 84.1354 19.4616 80.5297 19.4616H74.8047V29.2468L80.3489 29.2863Z"/>
<path d="M94.0186 18.2668C94.0028 18.0921 94.0242 17.9161 94.0814 17.75C94.1386 17.5839 94.2304 17.4313 94.3508 17.3019C94.4713 17.1725 94.6178 17.0692 94.781 16.9985C94.9443 16.9279 95.1208 16.8914 95.2992 16.8914C95.4776 16.8914 95.654 16.9279 95.8173 16.9985C95.9806 17.0692 96.1271 17.1725 96.2475 17.3019C96.368 17.4313 96.4597 17.5839 96.5169 17.75C96.5741 17.9161 96.5955 18.0921 96.5798 18.2668V38.2913C96.5955 38.466 96.5741 38.642 96.5169 38.8081C96.4597 38.9742 96.368 39.1268 96.2475 39.2562C96.1271 39.3856 95.9806 39.4889 95.8173 39.5596C95.654 39.6303 95.4776 39.6668 95.2992 39.6668C95.1208 39.6668 94.9443 39.6303 94.781 39.5596C94.6178 39.4889 94.4713 39.3856 94.3508 39.2562C94.2304 39.1268 94.1386 38.9742 94.0814 38.8081C94.0242 38.642 94.0028 38.466 94.0186 38.2913V18.2668Z"/>
<path d="M103.199 18.2964C103.206 17.9698 103.343 17.6588 103.579 17.4287C103.815 17.1985 104.132 17.0672 104.464 17.0622H104.816C105.077 17.0674 105.332 17.1371 105.559 17.2648C105.785 17.3925 105.975 17.5741 106.111 17.7929L119.862 35.023V18.2372C119.862 17.9125 119.993 17.601 120.226 17.3714C120.46 17.1418 120.777 17.0128 121.107 17.0128C121.437 17.0128 121.754 17.1418 121.988 17.3714C122.221 17.601 122.352 17.9125 122.352 18.2372V38.3308C122.358 38.4836 122.332 38.6358 122.275 38.7783C122.219 38.9208 122.134 39.0505 122.025 39.1596C121.916 39.2686 121.785 39.3546 121.641 39.4125C121.497 39.4703 121.343 39.4987 121.187 39.4959H121.057C120.79 39.4778 120.531 39.3988 120.301 39.2651C120.071 39.1314 119.876 38.9467 119.731 38.7257L105.67 21.0908V38.3308C105.667 38.649 105.541 38.9543 105.317 39.1839C105.093 39.4135 104.788 39.5499 104.464 39.565C104.136 39.5598 103.823 39.4272 103.593 39.196C103.363 38.9648 103.236 38.6538 103.239 38.3308V18.2964H103.199Z"/>
<path d="M128.74 18.2668C128.724 18.0921 128.746 17.9161 128.803 17.75C128.86 17.5839 128.952 17.4313 129.072 17.3019C129.193 17.1725 129.339 17.0692 129.503 16.9985C129.666 16.9279 129.842 16.8914 130.021 16.8914C130.199 16.8914 130.376 16.9279 130.539 16.9985C130.702 17.0692 130.849 17.1725 130.969 17.3019C131.09 17.4313 131.181 17.5839 131.239 17.75C131.296 17.9161 131.317 18.0921 131.301 18.2668V30.4415L144.198 17.4374C144.462 17.1683 144.822 17.0093 145.202 16.9931C145.531 17.0057 145.842 17.1417 146.072 17.3731C146.302 17.6046 146.433 17.9138 146.438 18.2372C146.43 18.4054 146.39 18.5705 146.317 18.723C146.245 18.8756 146.142 19.0125 146.016 19.1259L137.981 26.9461L146.648 37.373C146.875 37.631 147 37.9604 147 38.3012C146.996 38.4719 146.958 38.6402 146.887 38.7963C146.817 38.9524 146.716 39.0933 146.59 39.2108C146.464 39.3283 146.315 39.4201 146.153 39.4809C145.991 39.5417 145.818 39.5703 145.644 39.565C145.441 39.5595 145.243 39.5043 145.068 39.4042C144.892 39.3042 144.745 39.1626 144.64 38.9923L136.193 28.6345L131.301 33.4333V38.2715C131.301 38.4362 131.268 38.5993 131.204 38.7514C131.14 38.9036 131.046 39.0418 130.928 39.1583C130.809 39.2747 130.669 39.3671 130.514 39.4301C130.359 39.4931 130.193 39.5255 130.026 39.5255C129.858 39.5255 129.692 39.4931 129.538 39.4301C129.383 39.3671 129.242 39.2747 129.124 39.1583C129.005 39.0418 128.911 38.9036 128.847 38.7514C128.783 38.5993 128.75 38.4362 128.75 38.2715V18.2668H128.74Z"/>
<path d="M50.9203 15.9168C50.3273 15.9181 49.7398 15.8044 49.1915 15.5822C48.6432 15.36 48.1448 15.0336 47.725 14.6218C47.3052 14.21 46.9721 13.7208 46.7448 13.1823C46.5176 12.6437 46.4006 12.0664 46.4006 11.4834C46.3979 12.6601 45.9206 13.7878 45.0733 14.6189C44.2259 15.45 43.0778 15.9168 41.8809 15.9168C43.0788 15.9194 44.2268 16.3884 45.0739 17.2211C45.9209 18.0538 46.3979 19.1825 46.4006 20.3601C46.4006 19.1817 46.8768 18.0515 47.7244 17.2182C48.572 16.385 49.7216 15.9168 50.9203 15.9168Z"/>
<path d="M38.0743 19.3827C37.3417 19.3827 36.6392 19.0966 36.1212 18.5874C35.6032 18.0782 35.3122 17.3875 35.3122 16.6674C35.3122 17.3858 35.0226 18.075 34.5068 18.5839C33.9909 19.0929 33.291 19.3801 32.5602 19.3827C33.2901 19.3827 33.99 19.6677 34.5062 20.1751C35.0223 20.6825 35.3122 21.3706 35.3122 22.0882C35.3149 21.3697 35.607 20.6816 36.1247 20.1745C36.6424 19.6674 37.3435 19.3827 38.0743 19.3827Z"/>
<path d="M10.785 33.6406C10.056 33.6354 9.35856 33.347 8.84491 32.8384C8.33126 32.3297 8.04302 31.642 8.04303 30.9253C8.04304 31.6437 7.75342 32.3329 7.2376 32.8419C6.72178 33.3508 6.02182 33.638 5.29102 33.6406C6.02182 33.6433 6.72178 33.9305 7.2376 34.4394C7.75342 34.9484 8.04304 35.6375 8.04303 36.356C8.04302 35.6392 8.33126 34.9516 8.84491 34.4429C9.35856 33.9342 10.056 33.6459 10.785 33.6406Z"/>
</g>
<g fill="#D22856">
<path d="M98.9401 9.74565C97.9749 9.74565 97.0491 9.36938 96.3656 8.69934C95.6822 8.02929 95.2969 7.12016 95.2942 6.17126C95.2942 7.11925 94.9111 8.02841 94.2293 8.69874C93.5474 9.36906 92.6226 9.74565 91.6583 9.74565C92.6235 9.74826 93.5483 10.127 94.2299 10.7989C94.9115 11.4708 95.2942 12.381 95.2942 13.3299C95.2969 12.3801 95.6818 11.4699 96.365 10.7983C97.0482 10.1267 97.974 9.74826 98.9401 9.74565Z"/>
<path d="M43.287 19.0667C43.5381 19.0667 43.7792 19.0667 44.0202 19.0667C43.8019 18.6988 43.4897 18.3933 43.1145 18.1803C42.7393 17.9673 42.3141 17.8542 41.8809 17.8522C41.4627 17.8519 41.055 17.7233 40.7147 17.4843C40.3745 17.2454 40.1185 16.908 39.9826 16.5192C39.2588 16.7245 38.5561 16.9955 37.8834 17.3288H38.0743C38.607 17.3288 39.118 17.5369 39.4947 17.9072C39.8714 18.2776 40.083 18.7799 40.083 19.3036C40.088 19.399 40.088 19.4946 40.083 19.59C41.109 19.2225 42.1953 19.045 43.287 19.0667Z"/>
<path d="M60.7332 27.6472L55.5406 6.56621C55.179 4.24582 52.9291 0 46.9028 0C46.5033 0 46.1201 0.156044 45.8375 0.433804C45.555 0.711564 45.3962 1.08829 45.3962 1.4811C45.3962 1.87391 45.555 2.25063 45.8375 2.52839C46.1201 2.80615 46.5033 2.9622 46.9028 2.9622C51.7741 2.9622 52.4973 6.6452 52.5676 7.05003L57.3484 26.5018H55.2493C55.0321 24.805 54.4439 23.1744 53.525 21.7222C52.6061 20.2701 51.3783 19.0307 49.926 18.0892C49.4712 18.2774 49.0829 18.5932 48.8096 18.9971C48.5363 19.401 48.3901 19.8751 48.3893 20.3602C48.3948 20.4457 48.3948 20.5314 48.3893 20.6169C49.6107 21.4404 50.6131 22.5401 51.3122 23.8236C52.0113 25.1072 52.3867 26.537 52.4069 27.9928C52.4008 28.4894 52.3538 28.9847 52.2663 29.4739C51.9375 31.5714 50.8559 33.484 49.2173 34.8657C47.5786 36.2474 45.4911 37.007 43.3322 37.007C41.1734 37.007 39.0859 36.2474 37.4472 34.8657C35.8086 33.484 34.727 31.5714 34.3982 29.4739C34.3107 28.9847 34.2636 28.4894 34.2576 27.9928C34.2733 26.6229 34.5993 25.2737 35.2118 24.0432C34.7037 24.0081 34.2282 23.7847 33.8814 23.4181C33.5346 23.0515 33.3424 22.569 33.3436 22.0684C33.3453 21.889 33.277 21.7159 33.1528 21.5846C32.181 23.0752 31.5662 24.7633 31.3549 26.5215H29.4868C29.1663 23.6174 27.7658 20.9319 25.5542 18.9809C23.3427 17.0298 20.4759 15.9507 17.5044 15.9507C14.5329 15.9507 11.6662 17.0298 9.45463 18.9809C7.24307 20.9319 5.84259 23.6174 5.5221 26.5215H3.44302L8.23394 7.05003C8.29421 6.6452 9.0475 2.9622 13.8987 2.9622C14.2983 2.9622 14.6815 2.80615 14.964 2.52839C15.2465 2.25063 15.4053 1.87391 15.4053 1.4811C15.4053 1.08829 15.2465 0.711564 14.964 0.433804C14.6815 0.156044 14.2983 0 13.8987 0C7.87236 0 5.62254 4.24582 5.26096 6.56621L0.0582358 27.6472C-0.00612168 27.8617 -0.0173251 28.0883 0.0255611 28.308C0.0684473 28.5277 0.164178 28.7341 0.304759 28.91C0.44534 29.0859 0.62669 29.2262 0.833664 29.3191C1.04064 29.4121 1.26723 29.455 1.49451 29.4443H5.51206C5.59378 30.055 5.72135 30.659 5.89372 31.2512C5.95717 31.1429 5.99172 31.0206 5.99416 30.8957C5.99416 30.372 6.2058 29.8697 6.58252 29.4993C6.95923 29.129 7.47017 28.9209 8.00293 28.9209C8.16525 28.9248 8.32675 28.9446 8.48504 28.9802C8.44252 28.6526 8.41904 28.323 8.41473 27.9928C8.41742 27.4964 8.46109 27.0011 8.5453 26.5117C8.86708 24.4074 9.94627 22.4864 11.5867 21.0981C13.2271 19.7097 15.3198 18.9461 17.4843 18.9461C19.6489 18.9461 21.7416 19.7097 23.382 21.0981C25.0224 22.4864 26.1016 24.4074 26.4234 26.5117C26.5076 27.0011 26.5513 27.4964 26.554 27.9928C26.5638 29.6507 26.1017 31.2782 25.2199 32.6915C24.3381 34.1047 23.0717 35.2472 21.5639 35.9899C20.0561 36.7326 18.3671 37.0458 16.6877 36.8942C15.0083 36.7425 13.4056 36.132 12.0607 35.1317C11.6982 35.4412 11.235 35.6128 10.755 35.6155C10.5569 35.6181 10.3679 35.6973 10.2288 35.8359C10.0897 35.9745 10.0117 36.1613 10.0117 36.356C10.009 36.6321 9.94739 36.9046 9.83092 37.1558C11.9797 38.9066 14.6835 39.8636 17.4743 39.8613C20.4223 39.8738 23.2728 38.8236 25.4864 36.9095C27.7 34.9953 29.1232 32.35 29.4868 29.4739H31.3147C31.6456 32.3691 33.0499 35.0431 35.2593 36.9848C37.4688 38.9266 40.3285 40 43.2921 40C46.2557 40 49.1154 38.9266 51.3248 36.9848C53.5343 35.0431 54.9385 32.3691 55.2694 29.4739H59.2869C59.5191 29.4904 59.7519 29.4503 59.9647 29.3573C60.1774 29.2642 60.3635 29.121 60.5065 28.9404C60.6495 28.7598 60.7451 28.5473 60.7846 28.3217C60.8241 28.0961 60.8065 27.8645 60.7332 27.6472Z"/>
</g>
</svg>

<svg width="147" height="40" xmlns="http://www.w3.org/2000/svg"><path d="M72.193 18.425c0-.333.133-.652.369-.89.237-.238.558-.376.897-.384h7.211c5.113 0 8.477 2.676 8.477 7.06v.06c0 4.798-4.078 7.286-8.899 7.286h-5.494v6.734a1.244 1.244 0 01-.332.965 1.286 1.286 0 01-.948.41 1.304 1.304 0 01-.949-.41 1.26 1.26 0 01-.332-.965V18.425zm8.156 10.861c3.746 0 6.207-1.975 6.207-4.937v-.059c0-3.18-2.42-4.828-6.026-4.828h-5.725v9.785l5.544.04zm13.67-11.019a1.243 1.243 0 01.332-.965 1.286 1.286 0 01.948-.41 1.306 1.306 0 01.948.41 1.26 1.26 0 01.333.965V38.29a1.245 1.245 0 01-.332.965 1.284 1.284 0 01-.949.41 1.305 1.305 0 01-.948-.41 1.26 1.26 0 01-.332-.965V18.267zm9.18.029a1.25 1.25 0 01.38-.867c.236-.23.553-.362.885-.367h.352c.261.005.516.075.743.203.226.127.416.31.552.528l13.751 17.23V18.237c0-.324.131-.636.364-.866a1.259 1.259 0 011.762 0c.233.23.364.542.364.866v20.094a1.118 1.118 0 01-.711 1.082 1.161 1.161 0 01-.454.083h-.13a1.739 1.739 0 01-.756-.23 1.708 1.708 0 01-.57-.54L105.67 21.09v17.24a1.238 1.238 0 01-.353.853c-.224.23-.529.366-.853.381a1.257 1.257 0 01-.871-.369 1.21 1.21 0 01-.354-.865V18.296h-.04zm25.541-.029a1.243 1.243 0 01.332-.965 1.287 1.287 0 01.949-.41 1.306 1.306 0 01.948.41 1.242 1.242 0 01.332.965v12.175l12.897-13.005a1.496 1.496 0 011.004-.444 1.3 1.3 0 01.87.38c.23.232.361.54.366.864a1.262 1.262 0 01-.422.889l-8.035 7.82 8.667 10.427c.227.258.352.587.352.928a1.287 1.287 0 01-.847 1.18c-.162.06-.335.09-.509.084a1.227 1.227 0 01-1.004-.573l-8.447-10.357-4.892 4.798v4.839a1.237 1.237 0 01-.373.886 1.282 1.282 0 01-.902.367 1.29 1.29 0 01-.902-.367 1.244 1.244 0 01-.374-.886V18.267h-.01zm-77.82-2.35a4.577 4.577 0 01-1.729-.335 4.516 4.516 0 01-1.466-.96 4.43 4.43 0 01-.98-1.44 4.37 4.37 0 01-.344-1.699 4.406 4.406 0 01-1.328 3.136 4.56 4.56 0 01-3.192 1.298 4.57 4.57 0 013.193 1.304 4.416 4.416 0 011.327 3.14c0-1.18.476-2.31 1.323-3.143a4.56 4.56 0 013.196-1.301zm-12.846 3.466a2.786 2.786 0 01-1.953-.796 2.692 2.692 0 01-.809-1.92c0 .719-.29 1.408-.805 1.917a2.786 2.786 0 01-1.947.799c.73 0 1.43.285 1.946.792.516.508.806 1.196.806 1.913a2.693 2.693 0 01.813-1.914 2.787 2.787 0 011.95-.791zM10.785 33.64a2.786 2.786 0 01-1.94-.802 2.692 2.692 0 01-.802-1.913c0 .719-.29 1.408-.805 1.917a2.786 2.786 0 01-1.947.799c.73.002 1.43.29 1.947.798.515.51.805 1.199.805 1.917 0-.717.288-1.404.802-1.913a2.786 2.786 0 011.94-.802z"/><g fill="#D22856"><path d="M98.94 9.746a3.678 3.678 0 01-2.574-1.047 3.554 3.554 0 01-1.072-2.528c0 .948-.383 1.857-1.065 2.528a3.668 3.668 0 01-2.57 1.047c.965.002 1.89.381 2.57 1.053a3.554 3.554 0 011.065 2.53 3.561 3.561 0 011.071-2.53 3.688 3.688 0 012.575-1.053zm-55.653 9.321h.733a2.47 2.47 0 00-.906-.887 2.523 2.523 0 00-1.233-.328 2.03 2.03 0 01-1.166-.368 1.978 1.978 0 01-.732-.965 12.27 12.27 0 00-2.1.81h.191c.533 0 1.044.208 1.42.578.377.37.589.873.589 1.397.005.095.005.19 0 .286a8.975 8.975 0 013.204-.523z"/><path d="M60.733 27.647l-5.192-21.08C55.179 4.245 52.929 0 46.903 0c-.4 0-.783.156-1.066.434a1.469 1.469 0 00-.44 1.047c0 .393.158.77.44 1.047a1.52 1.52 0 001.066.434c4.871 0 5.594 3.683 5.665 4.088l4.78 19.452H55.25a11.721 11.721 0 00-1.724-4.78 11.946 11.946 0 00-3.599-3.633 2.502 2.502 0 00-1.116.908c-.274.404-.42.878-.42 1.363.005.086.005.171 0 .257a9.148 9.148 0 012.922 3.207 8.974 8.974 0 011.095 4.169 9.042 9.042 0 01-.14 1.48 8.849 8.849 0 01-3.05 5.393 9.132 9.132 0 01-5.885 2.141 9.132 9.132 0 01-5.885-2.141 8.849 8.849 0 01-3.049-5.392 9.031 9.031 0 01-.14-1.481c.015-1.37.341-2.72.954-3.95a2.023 2.023 0 01-1.33-.625 1.957 1.957 0 01-.538-1.35.694.694 0 00-.191-.483 11.566 11.566 0 00-1.798 4.936h-1.868a11.782 11.782 0 00-3.933-7.54 12.17 12.17 0 00-8.05-3.03 12.17 12.17 0 00-8.05 3.03 11.782 11.782 0 00-3.932 7.54h-2.08L8.233 7.05c.061-.405.814-4.088 5.666-4.088.4 0 .783-.156 1.065-.434.282-.277.441-.654.441-1.047 0-.393-.159-.77-.441-1.047A1.52 1.52 0 0013.899 0C7.872 0 5.623 4.246 5.26 6.566L.058 27.647a1.38 1.38 0 00.247 1.263 1.43 1.43 0 001.189.534h4.018c.082.611.21 1.215.382 1.807a.731.731 0 00.1-.355c0-.524.212-1.026.589-1.397.376-.37.887-.578 1.42-.578.162.004.324.024.482.06a8.536 8.536 0 01-.07-.988c.002-.497.046-.992.13-1.481a8.848 8.848 0 013.042-5.414 9.131 9.131 0 015.897-2.152c2.165 0 4.258.764 5.898 2.152a8.848 8.848 0 013.041 5.414c.085.49.128.984.131 1.48a8.775 8.775 0 01-1.334 4.7 8.984 8.984 0 01-3.656 3.298 9.174 9.174 0 01-9.503-.858c-.363.31-.826.48-1.306.483a.76.76 0 00-.526.22.734.734 0 00-.217.521 1.946 1.946 0 01-.181.8 12.088 12.088 0 007.643 2.705 12.174 12.174 0 008.012-2.951 11.789 11.789 0 004-7.436h1.829a11.784 11.784 0 003.944 7.51A12.171 12.171 0 0043.292 40a12.17 12.17 0 008.033-3.015 11.784 11.784 0 003.944-7.511h4.018c.232.016.465-.024.678-.117.212-.093.398-.236.541-.417a1.38 1.38 0 00.227-1.293z"/></g></svg>
